client/public/images/icon_flag.svg

<svg fill="none" height="20" viewBox="0 0 20 22" width="20" xmlns="http://www.w3.org/2000/svg"><g stroke="#fff"><path d="m16.1108 17.2109-4.4008.88"/><path d="m12.2227 13.1526-2.0559.8475c-.66285.2626-1.41498-.0429-1.70715-.6932-.29218-.6504-.021-1.4155.61553-1.7368l2.05912-1c.4526-.2259.978-.256 1.4534-.0833l3.7583 1.4383"/><path d="m3.88916 18.1524h1.55333l2.58917 1.9684c.27051.3045.73311.3413 1.04833.0833l3.88421-3.1208c.3191-.2616.3709-.7301.1166-1.055l-2.135-2.3525"/><path d="m3.88916 12.5979 3.16083-1.3475c.52364-.2094 1.11832-.1335 1.5725.2009l.27084.2225"/><path d="m1.11084 19.2647h1.66667c.29483 0 .57759-.1172.78606-.3256.20848-.2085.3256-.4913.3256-.7861v-5.555c0-.614-.49771-1.1117-1.11166-1.1117h-1.66667"/><path d="m18.8892 19.2647h-1.6667c-.2948 0-.5776-.1172-.7861-.3256-.2084-.2085-.3256-.4913-.3256-.7861v-5.555c0-.614.4978-1.1117 1.1117-1.1117h1.6667"/><path d="m8.24143 6.54851s-1.00666 1.72333-2.46666 1.48c-2.95917-.49333-2.46667-4.44-3.4525-5.91667 1.93757-.79155 4.13693-.60817 5.91666.49334 1.4825.98333 1.4825 2.46333.0025 3.94333z"/><path d="m12.6251 6.91721s.6992 1.19667 1.7134 1.0275c2.055-.3425 1.7125-3.08333 2.3975-4.11083-1.3462-.55019-2.8743-.42287-4.1109.3425-1.0275.6875-1.0275 1.71583 0 2.74083z"/><path d="m6.26855 4.125s3.04 2.15583 3.53334 7.0883c.60461-1.63414 1.52651-3.13261 2.71251-4.40913"/></g></svg>

<svg width="20" height="20" viewBox="0 0 20 22" fill="none" xmlns="http://www.w3.org/2000/svg">
<path d="M16.1108 17.2109L11.71 18.0909" stroke="white" strokeWidth="1.5" strokeLinecap="round" strokeLinejoin="round"/>
<path d="M12.2227 13.1526L10.1668 14.0001C9.50395 14.2627 8.75182 13.9572 8.45965 13.3069C8.16747 12.6565 8.43865 11.8914 9.07518 11.5701L11.1343 10.5701C11.5869 10.3442 12.1123 10.3141 12.5877 10.4868L16.346 11.9251" stroke="white" strokeWidth="1.5" strokeLinecap="round" strokeLinejoin="round"/>
<path d="M3.88916 18.1524H5.44249L8.03166 20.1208C8.30217 20.4253 8.76477 20.4621 9.07999 20.2041L12.9642 17.0833C13.2833 16.8217 13.3351 16.3532 13.0808 16.0283L10.9458 13.6758" stroke="white" strokeWidth="1.5" strokeLinecap="round" strokeLinejoin="round"/>
<path d="M3.88916 12.5979L7.04999 11.2504C7.57363 11.041 8.16831 11.1169 8.62249 11.4513L8.89333 11.6738" stroke="white" strokeWidth="1.5" strokeLinecap="round" strokeLinejoin="round"/>
<path d="M1.11084 19.2647H2.77751C3.07234 19.2647 3.3551 19.1475 3.56357 18.9391C3.77205 18.7306 3.88917 18.4478 3.88917 18.153V12.598C3.88917 11.984 3.39146 11.4863 2.77751 11.4863H1.11084" stroke="white" strokeWidth="1.5" strokeLinecap="round" strokeLinejoin="round"/>
<path d="M18.8892 19.2647H17.2225C16.9277 19.2647 16.6449 19.1475 16.4364 18.9391C16.228 18.7306 16.1108 18.4478 16.1108 18.153V12.598C16.1108 11.984 16.6086 11.4863 17.2225 11.4863H18.8892" stroke="white" strokeWidth="1.5" strokeLinecap="round" strokeLinejoin="round"/>
<path fillRule="evenodd" clipRule="evenodd" d="M8.24143 6.54851C8.24143 6.54851 7.23477 8.27184 5.77477 8.02851C2.8156 7.53518 3.3081 3.58851 2.32227 2.11184C4.25984 1.32029 6.4592 1.50367 8.23893 2.60518C9.72143 3.58851 9.72143 5.06851 8.24143 6.54851Z" stroke="white" strokeWidth="1.5" strokeLinecap="round" strokeLinejoin="round"/>
<path fillRule="evenodd" clipRule="evenodd" d="M12.6251 6.91721C12.6251 6.91721 13.3243 8.11388 14.3385 7.94471C16.3935 7.60221 16.051 4.86138 16.736 3.83388C15.3898 3.28369 13.8617 3.41101 12.6251 4.17638C11.5976 4.86388 11.5976 5.89221 12.6251 6.91721Z" stroke="white" strokeWidth="1.5" strokeLinecap="round" strokeLinejoin="round"/>
<path d="M6.26855 4.125C6.26855 4.125 9.30855 6.28083 9.80189 11.2133C10.4065 9.57916 11.3284 8.08069 12.5144 6.80417" stroke="white" strokeWidth="1.5" strokeLinecap="round" strokeLinejoin="round"/>
</svg>
